!!!OTL: Die unsichtbare Welt.
!!!OTL-incipit: WENN IM THAU DER ABENDKUEHLE
!!!COM: C. F. Zelter
!!!ARE: Europa, Mitteleuropa, Deutschland
!!!SCT: F0987
!!!TXL: @@DE
!!!YEM: Copyright 1995, estate of Helmut Schaffrath.
**kern	**text
*ICvox	*
*clefG2	*
!! Mixed meters:  4/4; 3/4
*M4/4	*
*met(c)	*
*k[b-e-a-]	*
*E-:	*
!LO:TX:a:t=Heimlich.	!
{4b-	1._Wenn
4b-	im
=1	=1
8.b-L	Thau
16ee-J	.
4g\	der
8.e-L	A-
16gJ	.
8.fL	-bend-
16b-J	.
=2	=2
4a-	-küh-
4g}	-le
{8b-L	hell
8ee-J	.
8ggL	der
8ee-J	.
=3	=3
8b-L	Thau
8gJ	.
8e-L	am
8B-J	.
4a-	Hal-
4g	-me
=4	=4
2f}	bebt,
{4f	und
4f	mit
=5	=5
8fL	ſanf-
8gJ	.
8anL	-te-
8b-J	.
8ccL	-rem
8ddJ	.
8ee-L	Ge-
8ffJ	.
=6	=6
8ee-L	-füh-
8ddJ	.
4dd}	-le
{8ffL	je-
8ddJ	.
8b-L	-de
8fJ	.
=7	=7
8gL	Men-
8anJ	.
8b-L	-ſchen-
8ccJ	.
(4fSS	-bruſt
8g)	.
8a	ſich
=8	=8
*M3/4	*
4b-\	hebt:
4r	.
4r}	.
=9	=9
{4b-	dann,
4cc	o
4dd	wie
=10	=10
8.ee-L	la-
16ggJ	.
4.b-	-bend,
8r}	.
=11	=11
{8ffL	däm-
8ddJ	.
4.b-	-mernd
8a-	er-
=12	=12
4a-qq	.
2.g\}	-hellt,
=13	=13
{4cc	weihſt
4cc	du
4cc	den
=14	=14
(>4b-/	A-
4g)	.
4e-}	-bend
=15	=15
{4.B-	heim-
8c	-li-
4d	-che
=16	=16
2.e-}	Welt.
==	==
!!!AGN: Natur - Lied
!!!ONB: ESAC (Essen Associative Code) Database: FINK
!!!AMT: irregular
!!!AIN: vox
!!!EED: Helmut Schaffrath
!!!EEV: 1.0
!!Text: Caroline von der Lühe
!!!RDF**kern: > = above
!!!GTL: Lieder zum Preise der Natur
!!!source: Musikalischer Hausschatz der Deutschen. Eine Sammlung von über 1000 Liedern und Gesängen mit Singstimmen und Klavierbegleitung. Leipzig, Litterarisches Verlags-Haus.
!!!page: 743
!!!URL-scan: https://www.digitale-sammlungen.de/en/view/bsb11144622?page=635
!!!ENC: Anna Maria Matuszewska
!!!EEV: 2024/08/08
*-	*-